img/svg/icon_del.svg

<svg width="15" height="19" viewBox="0 0 15 19" fill="none" xmlns="http://www.w3.org/2000/svg">
<path fill-rule="evenodd" clip-rule="evenodd" d="M15 3V2C15 2.12293 14.9367 2.11085 14.7488 2.07496C14.5945 2.0455 14.3562 2 14 2H10V1C10.3125 0.447715 9.89277 0 9 0H6C5.10723 0 4.6875 0.447715 5 1V2H1C0.643773 2 0.405491 2.0455 0.251211 2.07496C0.0632898 2.11085 0 2.12293 0 2V3C0 3.77614 0.209867 4 1 4H14C14.7901 4 15 3.77614 15 3ZM3 19C2.68802 19.0024 1.87624 18.2474 2 17L1 6H14L13 17C13.1423 18.2474 12.3305 19.0024 12 19H3Z" fill="#C0C0C0"/>
</svg>

<svg width="15" height="19" fill="none" xmlns="http://www.w3.org/2000/svg"><path fill-rule="evenodd" clip-rule="evenodd" d="M15 3V2c0 .123-.063.11-.251.075A3.651 3.651 0 0014 2h-4V1c.313-.552-.107-1-1-1H6c-.893 0-1.313.448-1 1v1H1a3.68 3.68 0 00-.749.075C.063 2.111 0 2.123 0 2v1c0 .776.21 1 1 1h13c.79 0 1-.224 1-1zM3 19c-.312.002-1.124-.753-1-2L1 6h13l-1 11c.142 1.247-.67 2.002-1 2H3z" fill="silver"/></svg>
